X:22
T:Fairy Dance
T:Largo's Fairy Dance
M:2/4
L:1/16
Q:100
S:Fairy Dance
Z:Brian Martin
K:G
B2BG B2BG|B2BG FGAc|B2BG cBAG| FDEF GABc:||
d2dB e3d|cABc d3c|B2BG cBAG|1 FDEF GABc:|2FDEF G4||

